X:1
T:Title
%%score { ( 1 3 ) | ( 2 4 ) }
L:1/8
Q:1/4=90
M:6/8
K:D
V:1 treble nm="Grand Piano"
V:3 treble 
V:2 bass 
V:4 bass 
V:1
 FFF FEF | GGG G3 | [CE][CE][CE] [GB][FA][EG] | F6 | FFF FEF | GGG G3 | [Ac][GB][FA] [EG][DF][CE] | %7
w: J.~Lincoln~Hall * * * * *|||||||
 D6 | [FA]3 [Fd]2 [DF] | z A,G G G2 | [A,EG]3 [Gc]2 [CGB] | [GB][FA][FA] [FA]3 | [FA]3 [Fd]2 F | %13
w: ||||||
 AGG G3 | ccc dcB | A-[GA-][FA-] [EA-][FA-][EA] | [DFA]3 [Fd]2 [DF] | z A,G G G2 | %18
w: |||||
 [A,EG]3 [Gc]2 [CGB] | [GB][FA][FA] [FA]3 | [FA]3 [Fd]2 [Fd] | edB d3 | [Bd][Ac][GB] [FA][Fd][DF] | %23
w: |||||
 [FA][EG][CE] D3 |] %24
w: |
V:2
 [D,A,D][D,A,D][D,A,D] [D,A,D][D,G,D][D,A,D] | [E,A,C][E,A,C][E,A,C] [E,A,C]3 | %2
 [A,,A,][A,,A,][A,,A,] [A,,A,][B,,A,][C,A,] | [D,A,D]6 | %4
 [D,A,D][D,A,D][D,A,D] [D,A,D][D,G,D][D,A,D] | [E,A,C][E,A,C][E,A,C] [E,A,C]3 | %6
 [A,,A,][A,,A,][A,,A,] [A,,A,][A,,A,][A,,G,] | [D,F,]6 | [D,D]3 [D,A,]2 [D,A,] | %9
 [E,A,]E,[E,A,C] C C2 | A,,3 A,2 A, | [D,D][D,D][D,D] [D,D]3 | [D,C]3 [D,A,]2 [D,A,D] | %13
 [E,A,C][E,A,C][E,A,C] [E,A,C]3 | [E,A,E][E,A,E][E,A,E] [E,^G,F][E,G,E][E,G,D] | z B,A, G,A,G, | %16
 D,3 [D,A,]2 [D,A,] | [E,A,]E,[E,A,C] C C2 | A,,3 A,2 A, | [D,D][D,D][D,D] [D,D]3 | %20
 [D,D]3 [D,A,]2 [D,A,] | [G,B,G][G,B,G][G,DG] [G,B,G]3 | %22
 [G,D][K:bass][G,D][G,D] [D,D][D,A,][D,A,] | [A,,A,][A,,A,][A,,G,] [D,F,]3 |] %24
V:3
 x6 | x6 | x6 | x6 | x6 | x6 | x6 | x6 | x6 | .[CA]3 z3 | x6 | x6 | x6 | x6 | x6 | .[A,C]3 z3 | %16
 x6 | .[CA]3 z3 | x6 | x6 | x6 | x6 | x6 | x6 |] %24
V:4
 x6 | x6 | x6 | x6 | x6 | x6 | x6 | x6 | x6 | z3 [E,A,]3 | x6 | x6 | x6 | x6 | x6 | A,,6 | x6 | %17
 z3 [E,A,]3 | x6 | x6 | x6 | x6 | x[K:bass] x5 | x6 |] %24

